icon-themes/sifr_svg/cmd/sc_insertindexesentry.svg

<svg viewBox="0 0 16 16" xmlns="http://www.w3.org/2000/svg"><g fill="#555753"><path d="m4 1v2h11v-2zm2 4a2 2 0 0 0 -2 2 2 2 0 0 0 2 2 2 2 0 0 0 2-2 2 2 0 0 0 -2-2zm3 1v2h6v-2z" opacity=".35"/><path d="m1 10v4l2-2zm5 0a2 2 0 0 0 -2 2 2 2 0 0 0 2 2 2 2 0 0 0 2-2 2 2 0 0 0 -2-2zm3 1v2h6v-2z"/></g></svg>

<svg xmlns="http://www.w3.org/2000/svg" viewBox="0 0 16 16">
  <path
     style="fill:#555753;opacity:0.35"
     d="M 4 1 L 4 3 L 15 3 L 15 1 L 4 1 z M 6 5 A 2 2 0 0 0 4 7 A 2 2 0 0 0 6 9 A 2 2 0 0 0 8 7 A 2 2 0 0 0 6 5 z M 9 6 L 9 8 L 15 8 L 15 6 L 9 6 z "
     />
  <path
     style="fill:#555753"
     d="M 1 10 L 1 14 L 3 12 L 1 10 z M 6 10 A 2 2. 0 0 0 4 12 A 2 2 0 0 0 6 14 A 2 2 0 0 0 8 12 A 2 2 0 0 0 6 10 z M 9 11 L 9 13 L 15 13 L 15 11 L 9 11 z "
     />
</svg>
